X:22
T:Gandy Dancers
S:Bernie Waugh
R:Reel
M:4/4
L:1/8
K:D
|:AG|\
"D"FDA,D FDA,D|FABc d2cd|"Em"BEE/E/E cEE/E/E|"Bm"dfed "G"B2AG|
"D"FDA,D FDA,D|FABc d2cd|"G"BBGB "D"AdFA|"A"AGEC "D"ED:|
|:fg|\
"D"~a2ab agfe|dAdf a2gf|"A"eAce gfec|"Bm"dfed "G"B2(3ABc|
"D"dcdf "A"ecA2|"G"GFGB "D"AFD2|"G"GFE/E/D "A"CDEC|"D"D2F2 D2:|


